X:1
T:Sir Lionel
B:Journal of the English Folk Dance and Song Society, Dec 1936
S:Unknown, from Frank Kidson's manuscripts
Z:Anne G Gilchrist/Frank Kidson
F:http://www.folkinfo.org/songs
M:4/4     %Meter
L:1/8     %
K:F
C2 |C2 F2 E2 F2 |G2 A2 F4 |F F z2 G2 z2 | A F z2 z2 
w: *Tom and Har-ry went to plough, Dil-lom down dil-lom
C2 |D2 F2 E2 F2 |G2 A2 F4 |c c z2 =B2 z2 | c4 z2
w: As Tom and Har-ry went to plough, Quid-ly quo quam 
 A2 |f2 e2 d2 c2 |d2 c2 B2 A2 |B2 A2 G2 F2 | G2 F2 D4  |
w:As Tom and Har-ry went to plough They saw a fair maid on a bough,
 (3:2D2E2F2 C4 |D F3 C4 |D D z2 E2 z2 | F4 z4 |]
w: Kam-ber-ley quo, quod-dle dam, quid-ly quo quam